libs/ui/packages/crypto-icons/src/svg/PPP.svg

<svg width="24" height="24" viewBox="0 0 24 24" fill="none">
<path d="M17.4834 5.2829C17.6625 5.46881 17.7627 5.71695 17.7627 5.97515C17.7627 6.23336 17.6625 6.4815 17.4834 6.66741L15.1359 9.07415C15.0613 9.15036 14.9746 9.21372 14.8794 9.26165C14.707 9.35888 14.5073 9.3961 14.3115 9.36745C14.1158 9.33881 13.9351 9.24592 13.7979 9.1034L11.4594 6.70791L6.9556 11.3272L8.0431 12.4394C8.19916 12.6035 8.28575 12.8215 8.28477 13.048C8.2838 13.2744 8.19532 13.4917 8.03785 13.6544C7.961 13.7339 7.86902 13.7972 7.76732 13.8406C7.66563 13.884 7.55628 13.9066 7.44571 13.9071C7.33514 13.9076 7.2256 13.8859 7.12352 13.8434C7.02145 13.801 6.92891 13.7385 6.85135 13.6597L5.12185 11.8949C4.96312 11.7307 4.87439 11.5113 4.87439 11.2829C4.87439 11.0545 4.96312 10.8351 5.12185 10.6709L5.13385 10.6597C5.13754 10.6561 5.14105 10.6523 5.14435 10.6484L10.8624 4.7834H10.8631L10.8639 4.78265L10.8826 4.76315C11.0253 4.61485 11.2165 4.52263 11.4214 4.50322C11.6263 4.48382 11.8313 4.53852 11.9994 4.6574C12.0534 4.69415 12.1044 4.7354 12.1494 4.78265L14.3874 7.07241L16.1326 5.2829C16.2203 5.19241 16.3254 5.12046 16.4415 5.07133C16.5575 5.02219 16.6823 4.99687 16.8084 4.99687C16.9344 4.99687 17.0592 5.02219 17.1752 5.07133C17.2913 5.12046 17.3964 5.19241 17.4841 5.2829H17.4834ZM18.8769 12.1094C19.0361 12.2725 19.1254 12.4914 19.1255 12.7194C19.1257 12.9474 19.0367 13.1664 18.8776 13.3297L18.8656 13.3409C18.8617 13.3445 18.8579 13.3482 18.8544 13.3522L13.1139 19.2374C13.0266 19.3278 12.9206 19.3981 12.8033 19.4432C12.6861 19.4883 12.5603 19.5072 12.435 19.4986C12.3096 19.4899 12.1876 19.4539 12.0777 19.3931C11.9677 19.3323 11.8724 19.2482 11.7984 19.1467L9.6106 16.9087L7.87585 18.6922C7.63435 18.9412 7.28185 19.0394 6.9511 18.9487C6.62035 18.8579 6.3616 18.5939 6.2731 18.2549C6.18535 17.9167 6.2806 17.5552 6.52435 17.3084L8.8711 14.9024C9.0046 14.7629 9.17635 14.6684 9.36385 14.6309C9.66685 14.5634 9.98335 14.6579 10.2031 14.8829L12.5476 17.2814L17.0431 12.6734L15.9556 11.5612C15.7995 11.3971 15.713 11.179 15.7139 10.9526C15.7149 10.7262 15.8034 10.5089 15.9609 10.3462C16.0377 10.2667 16.1297 10.2034 16.2314 10.16C16.3331 10.1166 16.4424 10.094 16.553 10.0935C16.6636 10.093 16.7731 10.1146 16.8752 10.1571C16.9773 10.1996 17.0698 10.2621 17.1474 10.3409L18.8521 12.0847L18.8536 12.0862L18.8559 12.0877L18.8769 12.1094Z" fill="#348F8D"/>
</svg>

<svg width="24" height="24" viewBox="0 0 24 24" fill="none"><path fill="#348f8d" d="M17.483 5.283a1 1 0 0 1 0 1.384l-2.347 2.407a1 1 0 0 1-.257.188.89.89 0 0 1-1.081-.159l-2.339-2.395-4.503 4.62 1.087 1.111a.88.88 0 0 1-.005 1.215.83.83 0 0 1-1.187.006l-1.73-1.765a.88.88 0 0 1 0-1.224l.013-.011.01-.012 5.718-5.865h.001l.02-.02a.86.86 0 0 1 1.116-.106 1 1 0 0 1 .15.126l2.238 2.29 1.746-1.79a.94.94 0 0 1 1.351 0m1.394 6.826a.874.874 0 0 1 0 1.22l-.011.012-.012.011-5.74 5.885a.862.862 0 0 1-1.316-.09l-2.187-2.238-1.735 1.783a.94.94 0 0 1-.925.257.97.97 0 0 1-.678-.694 1 1 0 0 1 .251-.947l2.347-2.406a.94.94 0 0 1 .493-.271.9.9 0 0 1 .84.252l2.344 2.398 4.495-4.608-1.087-1.112a.88.88 0 0 1 .005-1.215.83.83 0 0 1 1.186-.005l1.705 1.744.002.001.002.002z"/></svg>
